swiss/communes/0090.svg

<?xml version="1.0" encoding="UTF-8" standalone="no"?>
<!-- Created with Inkscape (http://www.inkscape.org/) -->
<svg
   xmlns:svg="http://www.w3.org/2000/svg"
   xmlns="http://www.w3.org/2000/svg"
   version="1.0"
   width="223.86151"
   height="262.2189"
   id="svg2780">
  <defs
     id="defs2782" />
  <g
     transform="translate(-12.151961,-789.19789)"
     id="layer1">
    <path
       d="M 13.214593,790.26052 L 17.246157,959.62382 C 20.125838,1080.5976 228.03959,1080.5976 230.91928,959.62382 L 234.95084,790.26052 L 13.214593,790.26052 z"
       id="path3282"
       style="fill:#ffffff;fill-opacity:1;fill-rule:evenodd;stroke:#000000;stroke-width:2.12526488;stroke-linecap:butt;stroke-miterlimit:4;stroke-dashoffset:0;stroke-opacity:1" />
    <path
       d="M 16.5,124.03125 L 17.25,155.28125 C 20.129681,276.25502 228.02656,276.25503 230.90625,155.28125 L 231.65625,124.03125 L 16.5,124.03125 z"
       transform="translate(0,804.33069)"
       id="rect3133"
       style="opacity:1;fill:#de4229;fill-opacity:1;fill-rule:evenodd;stroke:#000000;stroke-width:2.12598419;stroke-linecap:butt;stroke-linejoin:miter;marker:none;marker-start:none;marker-mid:none;marker-end:none;stroke-miterlimit:4;stroke-dasharray:none;stroke-dashoffset:0;stroke-opacity:1;visibility:visible;display:inline;overflow:visible;enable-background:accumulate" />
    <path
       d="M 2501.7412,442.74945 A 12.58616,12.58616 0 1 1 2476.5689,442.74945 A 12.58616,12.58616 0 1 1 2501.7412,442.74945 z"
       transform="matrix(0.1663208,0,0,0.1663208,-241.64836,775.32212)"
       id="path14345"
       style="opacity:1;fill:#ffff00;fill-opacity:1;fill-rule:evenodd;stroke:#000000;stroke-width:6.01247692px;stroke-linecap:butt;stroke-linejoin:round;marker:none;marker-start:none;marker-mid:none;marker-end:none;stroke-miterlimit:4;stroke-dasharray:none;stroke-dashoffset:0;stroke-opacity:1;visibility:visible;display:inline;overflow:visible;enable-background:accumulate" />
    <path
       d="M 176.84691,859.81986 C 175.65268,863.3537 179.3048,870.03791 175.8415,870.16025 C 173.37329,870.24744 171.90645,869.92443 169.96612,870.09187 C 168.15561,870.24811 166.80014,869.35459 167.47101,867.74978 C 168.36632,865.60811 168.82337,863.46612 167.8829,860.64601 C 167.08579,858.2558 169.74099,856.08765 172.31488,855.93245 C 174.72075,855.78738 177.55106,857.73624 176.84691,859.81986 z"
       id="path14349"
       style="opacity:1;fill:#ffff00;fill-opacity:1;fill-rule:evenodd;stroke:#000000;stroke-width:1px;stroke-linecap:butt;stroke-linejoin:round;marker:none;marker-start:none;marker-mid:none;marker-end:none;stroke-miterlimit:4;stroke-dasharray:none;stroke-dashoffset:0;stroke-opacity:1;visibility:visible;display:inline;overflow:visible;enable-background:accumulate" />
    <path
       d="M 108.33714,894.96744 L 91.122822,915.90403 L 122.95128,915.78301 L 137.92597,894.23271 C 135.30187,894.06238 134.52739,893.32969 134.70498,887.40794 L 124.04047,843.29157 L 98.731932,841.43852 C 97.713142,844.12296 97.072942,846.40122 95.739302,849.30825 C 94.373312,852.2858 97.837992,851.47625 96.384562,853.8354 C 94.892732,856.25688 93.233912,860.10119 91.738532,862.2074 C 90.271282,864.274 91.433582,865.4634 94.558772,866.51474 C 95.708902,866.90165 95.741352,867.16219 95.487702,867.87446 C 94.689252,870.11662 94.448752,869.82826 95.955112,870.72725 C 97.086332,871.40235 96.530682,871.85021 99.637212,871.3373 C 97.395012,871.46052 94.752862,873.12468 95.938562,873.86855 C 96.647232,874.31315 96.988102,874.46911 96.509232,875.9653 C 94.662642,881.73486 100.37456,883.36276 103.91013,883.01084 C 107.4457,882.65891 108.60066,882.99726 110.7663,882.96995 C 112.54777,882.94749 114.31919,882.74667 116.25575,881.9502 C 114.31919,882.74667 112.54777,882.94749 110.7663,882.96995 L 111.22654,894.26395"
       id="path3351"
       style="opacity:1;fill:#d5ab76;fill-opacity:1;fill-rule:evenodd;stroke:#000000;stroke-width:1px;stroke-linecap:butt;stroke-linejoin:round;marker:none;marker-start:none;marker-mid:none;marker-end:none;stroke-miterlimit:4;stroke-dasharray:none;stroke-dashoffset:0;stroke-opacity:1;visibility:visible;display:inline;overflow:visible;enable-background:accumulate" />
    <path
       d="M 139.41296,892.41679 C 130.04079,899.30335 122.71781,906.64862 117.22546,915.41679 C 111.47331,915.30535 105.53431,915.18817 99.944212,915.07304 C 102.31513,907.16463 105.7857,899.84027 109.91296,894.01054 C 103.34066,895.84163 96.162572,898.78472 89.912962,902.22929 C 89.701742,903.06798 89.513202,903.89749 89.319212,904.72929 C 80.934732,908.54826 74.106072,914.23398 69.256712,927.07304 L 117.50671,927.54174 L 126.10046,927.76054 C 126.12057,927.71714 126.1428,927.67874 126.16296,927.63554 L 181.38171,928.16674 C 181.65256,922.85574 177.48313,916.8696 172.53796,914.88554 C 174.02881,907.5959 163.34162,908.06543 154.44421,900.79179 C 155.04306,900.51039 155.62327,900.1907 156.22546,899.91679 C 150.83227,897.28227 145.71783,894.13962 139.41296,892.41679 z"
       id="path6403"
       style="fill:#0d090e;fill-opacity:1;fill-rule:evenodd;stroke:none;stroke-width:1px;stroke-linecap:butt;stroke-linejoin:miter;marker:none;marker-start:none;marker-mid:none;marker-end:none;stroke-miterlimit:4;stroke-dasharray:none;stroke-dashoffset:0;stroke-opacity:1;visibility:visible;display:inline;overflow:visible;enable-background:accumulate" />
    <path
       d="M 97.294882,927.15894 C 98.911662,915.1765 103.79632,901.39604 111.22823,893.57282"
       id="path3686"
       style="opacity:1;fill:none;fill-opacity:1;fill-rule:evenodd;stroke:#ffffff;stroke-width:1px;stroke-linecap:butt;stroke-linejoin:miter;marker:none;marker-start:none;marker-mid:none;marker-end:none;stroke-miterlimit:4;stroke-dasharray:none;stroke-dashoffset:0;stroke-opacity:1;visibility:visible;display:inline;overflow:visible;enable-background:accumulate" />
    <path
       d="M 145.42279,878.55275 C 148.26983,882.13667 151.37655,889.85487 142.11628,889.24835 C 132.7708,888.63624 121.7929,888.97755 119.07419,876.79841 C 116.39188,864.78235 122.98562,850.37452 106.60529,842.0844 L 94.189842,833.25881 C 118.57917,791.01151 172.62552,811.68869 174.52661,842.54512 C 174.77194,846.52698 172.87248,846.82184 170.12639,845.39426 C 167.35513,843.9536 165.17196,843.24586 159.1678,836.54133 C 157.3045,837.83989 153.38324,837.76016 150.6761,837.41372 C 153.48088,853.75305 149.36065,851.14915 142.5961,858.65692 C 146.64657,872.09301 142.74961,875.18771 145.42279,878.55275 z"
       id="path2262"
       style="opacity:1;fill:#000000;fill-opacity:1;fill-rule:evenodd;stroke:#000000;stroke-width:1px;stroke-linecap:butt;stroke-linejoin:miter;marker:none;marker-start:none;marker-mid:none;marker-end:none;stroke-miterlimit:4;stroke-dasharray:none;stroke-dashoffset:0;stroke-opacity:1;visibility:visible;display:inline;overflow:visible;enable-background:accumulate" />
    <path
       d="M 90.497822,829.66148 C 92.836862,834.86722 94.241302,843.46718 97.544932,843.39651 C 109.49531,843.14087 135.8974,850.29974 143.87487,863.77383 C 147.22661,860.62638 150.80672,857.31707 156.02655,855.32702 C 152.10975,850.54999 140.90869,838.43194 138.37152,842.02281 C 130.28789,853.46362 128.49997,849.57501 132.51392,837.94306 C 119.69527,831.31587 104.47741,829.84513 90.497822,829.66148 z"
       id="path3349"
       style="opacity:1;fill:#ffff00;fill-opacity:1;fill-rule:evenodd;stroke:#000000;stroke-width:1px;stroke-linecap:butt;stroke-linejoin:round;marker:none;marker-start:none;marker-mid:none;marker-end:none;stroke-miterlimit:4;stroke-dasharray:none;stroke-dashoffset:0;stroke-opacity:1;visibility:visible;display:inline;overflow:visible;enable-background:accumulate" />
    <path
       d="M 100.03005,846.93932 C 102.89425,846.30154 107.26052,849.53622 107.87395,851.02074 C 108.48097,852.4897 107.9308,852.26971 107.24005,851.7881 C 106.56998,851.32092 102.31645,849.159 100.60307,850.9009 C 98.931952,852.59985 97.178112,847.57437 100.03005,846.93932 z"
       id="path3353"
       style="opacity:1;fill:#000000;fill-opacity:1;fill-rule:evenodd;stroke:none;stroke-width:1px;stroke-linecap:butt;stroke-linejoin:miter;marker:none;marker-start:none;marker-mid:none;marker-end:none;stroke-miterlimit:4;stroke-dasharray:none;stroke-dashoffset:0;stroke-opacity:0.46732028;visibility:visible;display:inline;overflow:visible;enable-background:accumulate" />
    <path
       d="M 100.69447,857.40153 C 100.83841,856.94793 99.840752,856.48843 100.23267,854.93544 C 100.46715,854.00633 100.16134,853.74019 99.640992,853.66131 C 99.117052,853.58189 99.054882,853.23168 98.977792,852.86975 C 98.899892,852.50403 98.944032,851.3947 99.630612,852.16376 C 100.33209,852.9495 103.67543,852.82967 104.71128,853.76828 C 105.76953,854.72718 105.16507,855.5057 104.43317,854.94493 C 101.55759,852.74173 101.64851,855.28095 102.07987,856.87036 C 102.34516,857.84784 100.56188,857.81934 100.69447,857.40153 z"
       id="path3682"
       style="opacity:1;fill:#000000;fill-opacity:1;fill-rule:evenodd;stroke:none;stroke-width:1px;stroke-linecap:butt;stroke-linejoin:miter;marker:none;marker-start:none;marker-mid:none;marker-end:none;stroke-miterlimit:4;stroke-dasharray:none;stroke-dashoffset:0;stroke-opacity:0.46732028;visibility:visible;display:inline;overflow:visible;enable-background:accumulate" />
    <path
       d="M 95.630852,864.92403 C 96.336392,865.50652 96.710372,866.18184 97.325142,866.40654 C 97.929582,866.62746 98.111612,866.05747 97.869732,865.52914 C 97.622352,864.98877 96.619602,864.73487 95.630852,864.92403 z"
       id="path3684"
       style="opacity:1;fill:#000000;fill-opacity:1;fill-rule:evenodd;stroke:none;stroke-width:1px;stroke-linecap:butt;stroke-linejoin:miter;marker:none;marker-start:none;marker-mid:none;marker-end:none;stroke-miterlimit:4;stroke-dasharray:none;stroke-dashoffset:0;stroke-opacity:0.46732028;visibility:visible;display:inline;overflow:visible;enable-background:accumulate" />
    <path
       d="M 176.23108,854.45543 C 176.23108,855.99042 173.77508,856.14702 172.24008,856.14702 C 170.70511,856.14702 168.24912,855.3248 168.24912,853.78981 C 168.24912,851.71023 170.65964,851.58135 172.17957,851.79567 C 173.8961,852.03772 176.23108,852.92044 176.23108,854.45543 z"
       id="path14347"
       style="opacity:1;fill:#ffff00;fill-opacity:1;fill-rule:evenodd;stroke:#000000;stroke-width:1px;stroke-linecap:butt;stroke-linejoin:round;marker:none;marker-start:none;marker-mid:none;marker-end:none;stroke-miterlimit:4;stroke-dasharray:none;stroke-dashoffset:0;stroke-opacity:1;visibility:visible;display:inline;overflow:visible;enable-background:accumulate" />
    <path
       d="M 157.60118,898.90239 C 145.99633,904.18099 133.5621,911.65627 126.09782,927.76404"
       id="path3826"
       style="opacity:1;fill:none;fill-opacity:1;fill-rule:evenodd;stroke:#ffffff;stroke-width:1px;stroke-linecap:butt;stroke-linejoin:miter;marker:none;marker-start:none;marker-mid:none;marker-end:none;stroke-miterlimit:4;stroke-dasharray:none;stroke-dashoffset:0;stroke-opacity:1;visibility:visible;display:inline;overflow:visible;enable-background:accumulate" />
    <path
       d="M 111.21227,927.40104 C 116.87663,912.9334 127.43784,901.20225 140.77929,891.39911"
       id="path3688"
       style="opacity:1;fill:none;fill-opacity:1;fill-rule:evenodd;stroke:#ffffff;stroke-width:1px;stroke-linecap:butt;stroke-linejoin:miter;marker:none;marker-start:none;marker-mid:none;marker-end:none;stroke-miterlimit:4;stroke-dasharray:none;stroke-dashoffset:0;stroke-opacity:1;visibility:visible;display:inline;overflow:visible;enable-background:accumulate" />
    <path
       d="M 110.7663,882.96995 L 111.22654,894.26395 L 111.49002,899.39739 C 111.54334,900.6076 109.58819,903.78884 107.93824,903.89586"
       id="path3962"
       style="opacity:1;fill:none;fill-opacity:1;fill-rule:evenodd;stroke:#000000;stroke-width:1px;stroke-linecap:round;stroke-linejoin:round;marker:none;marker-start:none;marker-mid:none;marker-end:none;stroke-miterlimit:4;stroke-dasharray:none;stroke-dashoffset:0;stroke-opacity:1;visibility:visible;display:inline;overflow:visible;enable-background:accumulate" />
    <path
       d="M 85.918932,927.15894 C 86.484332,919.1552 87.905602,909.67951 90.083772,901.03064"
       id="path3830"
       style="opacity:1;fill:none;fill-opacity:1;fill-rule:evenodd;stroke:#ffffff;stroke-width:1px;stroke-linecap:butt;stroke-linejoin:miter;marker:none;marker-start:none;marker-mid:none;marker-end:none;stroke-miterlimit:4;stroke-dasharray:none;stroke-dashoffset:0;stroke-opacity:1;visibility:visible;display:inline;overflow:visible;enable-background:accumulate" />
  </g>
</svg>

<svg xmlns="http://www.w3.org/2000/svg" version="1.0" width="223.862" height="262.219"><path d="m13.215 790.26 4.031 169.364c2.88 120.974 210.794 120.974 213.673 0l4.032-169.363H13.215z" style="fill:#fff;fill-opacity:1;fill-rule:evenodd;stroke:#000;stroke-width:2.12526488;stroke-linecap:butt;stroke-miterlimit:4;stroke-dashoffset:0;stroke-opacity:1" transform="translate(-12.152 -789.198)"/><path d="m16.5 124.031.75 31.25c2.88 120.974 210.777 120.974 213.656 0l.75-31.25H16.5z" transform="translate(-12.152 15.133)" style="opacity:1;fill:#de4229;fill-opacity:1;fill-rule:evenodd;stroke:#000;stroke-width:2.12598419;stroke-linecap:butt;stroke-linejoin:miter;marker:none;marker-start:none;marker-mid:none;marker-end:none;stroke-miterlimit:4;stroke-dasharray:none;stroke-dashoffset:0;stroke-opacity:1;visibility:visible;display:inline;overflow:visible;enable-background:accumulate"/><path d="M2501.741 442.75a12.586 12.586 0 1 1-25.172 0 12.586 12.586 0 1 1 25.172 0z" transform="translate(-253.8 -13.876) scale(.16632)" style="opacity:1;fill:#ff0;fill-opacity:1;fill-rule:evenodd;stroke:#000;stroke-width:6.01247692px;stroke-linecap:butt;stroke-linejoin:round;marker:none;marker-start:none;marker-mid:none;marker-end:none;stroke-miterlimit:4;stroke-dasharray:none;stroke-dashoffset:0;stroke-opacity:1;visibility:visible;display:inline;overflow:visible;enable-background:accumulate"/><path d="M176.847 859.82c-1.194 3.534 2.458 10.218-1.006 10.34-2.468.087-3.935-.236-5.875-.068-1.81.156-3.166-.737-2.495-2.342.895-2.142 1.352-4.284.412-7.104-.797-2.39 1.858-4.558 4.432-4.714 2.406-.145 5.236 1.804 4.532 3.888z" style="opacity:1;fill:#ff0;fill-opacity:1;fill-rule:evenodd;stroke:#000;stroke-width:1px;stroke-linecap:butt;stroke-linejoin:round;marker:none;marker-start:none;marker-mid:none;marker-end:none;stroke-miterlimit:4;stroke-dasharray:none;stroke-dashoffset:0;stroke-opacity:1;visibility:visible;display:inline;overflow:visible;enable-background:accumulate" transform="translate(-12.152 -789.198)"/><path d="m108.337 894.967-17.214 20.937 31.828-.121 14.975-21.55c-2.624-.17-3.399-.903-3.221-6.825l-10.665-44.116-25.308-1.853c-1.019 2.684-1.66 4.962-2.993 7.87-1.366 2.977 2.099 2.167.646 4.526-1.492 2.422-3.151 6.266-4.646 8.372-1.468 2.067-.305 3.256 2.82 4.308 1.15.387 1.182.647.929 1.36-.799 2.242-1.04 1.953.467 2.852 1.131.675.576 1.123 3.682.61-2.242.124-4.884 1.788-3.698 2.532.708.444 1.05.6.57 2.096-1.846 5.77 3.866 7.398 7.401 7.046 3.536-.352 4.69-.014 6.856-.041 1.782-.023 3.553-.223 5.49-1.02-1.937.797-3.708.997-5.49 1.02l.46 11.294" style="opacity:1;fill:#d5ab76;fill-opacity:1;fill-rule:evenodd;stroke:#000;stroke-width:1px;stroke-linecap:butt;stroke-linejoin:round;marker:none;marker-start:none;marker-mid:none;marker-end:none;stroke-miterlimit:4;stroke-dasharray:none;stroke-dashoffset:0;stroke-opacity:1;visibility:visible;display:inline;overflow:visible;enable-background:accumulate" transform="translate(-12.152 -789.198)"/><path d="M139.413 892.417c-9.372 6.886-16.695 14.232-22.188 23-5.752-.112-11.69-.229-17.28-.344 2.37-7.908 5.84-15.233 9.968-21.062-6.572 1.83-13.75 4.774-20 8.218-.211.839-.4 1.668-.594 2.5-8.384 3.82-15.213 9.505-20.062 22.344l48.25.469 8.593.219c.02-.044.043-.082.063-.125l55.219.53c.27-5.31-3.899-11.296-8.844-13.28 1.49-7.29-9.196-6.82-18.094-14.094.6-.282 1.18-.601 1.781-.875-5.393-2.635-10.507-5.777-16.812-7.5z" style="fill:#0d090e;fill-opacity:1;fill-rule:evenodd;stroke:none;stroke-width:1px;stroke-linecap:butt;stroke-linejoin:miter;marker:none;marker-start:none;marker-mid:none;marker-end:none;stroke-miterlimit:4;stroke-dasharray:none;stroke-dashoffset:0;stroke-opacity:1;visibility:visible;display:inline;overflow:visible;enable-background:accumulate" transform="translate(-12.152 -789.198)"/><path d="M97.295 927.159c1.617-11.982 6.501-25.763 13.933-33.586" style="opacity:1;fill:none;fill-opacity:1;fill-rule:evenodd;stroke:#fff;stroke-width:1px;stroke-linecap:butt;stroke-linejoin:miter;marker:none;marker-start:none;marker-mid:none;marker-end:none;stroke-miterlimit:4;stroke-dasharray:none;stroke-dashoffset:0;stroke-opacity:1;visibility:visible;display:inline;overflow:visible;enable-background:accumulate" transform="translate(-12.152 -789.198)"/><path d="M145.423 878.553c2.847 3.584 5.954 11.302-3.307 10.695-9.345-.612-20.323-.27-23.042-12.45-2.682-12.016 3.912-26.423-12.469-34.714L94.19 833.26c24.39-42.247 78.436-21.57 80.337 9.286.245 3.982-1.655 4.277-4.4 2.85-2.772-1.441-4.955-2.15-10.96-8.854-1.863 1.299-5.784 1.22-8.49.873 2.804 16.34-1.316 13.735-8.08 21.243 4.05 13.436.153 16.53 2.826 19.896z" style="opacity:1;fill:#000;fill-opacity:1;fill-rule:evenodd;stroke:#000;stroke-width:1px;stroke-linecap:butt;stroke-linejoin:miter;marker:none;marker-start:none;marker-mid:none;marker-end:none;stroke-miterlimit:4;stroke-dasharray:none;stroke-dashoffset:0;stroke-opacity:1;visibility:visible;display:inline;overflow:visible;enable-background:accumulate" transform="translate(-12.152 -789.198)"/><path d="M90.498 829.661c2.339 5.206 3.743 13.806 7.047 13.736 11.95-.256 38.352 6.903 46.33 20.377 3.352-3.148 6.932-6.457 12.152-8.447-3.917-4.777-15.118-16.895-17.655-13.304-8.084 11.44-9.872 7.552-5.858-4.08-12.819-6.627-28.037-8.098-42.016-8.282z" style="opacity:1;fill:#ff0;fill-opacity:1;fill-rule:evenodd;stroke:#000;stroke-width:1px;stroke-linecap:butt;stroke-linejoin:round;marker:none;marker-start:none;marker-mid:none;marker-end:none;stroke-miterlimit:4;stroke-dasharray:none;stroke-dashoffset:0;stroke-opacity:1;visibility:visible;display:inline;overflow:visible;enable-background:accumulate" transform="translate(-12.152 -789.198)"/><path d="M100.03 846.94c2.864-.638 7.23 2.596 7.844 4.08.607 1.47.057 1.25-.634.768-.67-.467-4.924-2.629-6.637-.887-1.671 1.699-3.425-3.327-.573-3.962z" style="opacity:1;fill:#000;fill-opacity:1;fill-rule:evenodd;stroke:none;stroke-width:1px;stroke-linecap:butt;stroke-linejoin:miter;marker:none;marker-start:none;marker-mid:none;marker-end:none;stroke-miterlimit:4;stroke-dasharray:none;stroke-dashoffset:0;stroke-opacity:.46732028;visibility:visible;display:inline;overflow:visible;enable-background:accumulate" transform="translate(-12.152 -789.198)"/><path d="M100.694 857.402c.144-.454-.853-.914-.461-2.467.234-.929-.072-1.195-.592-1.274-.524-.08-.586-.43-.663-.791-.078-.366-.034-1.475.653-.706.701.785 4.044.666 5.08 1.604 1.059.96.454 1.738-.278 1.177-2.875-2.203-2.784.336-2.353 1.925.265.978-1.518.95-1.386.532z" style="opacity:1;fill:#000;fill-opacity:1;fill-rule:evenodd;stroke:none;stroke-width:1px;stroke-linecap:butt;stroke-linejoin:miter;marker:none;marker-start:none;marker-mid:none;marker-end:none;stroke-miterlimit:4;stroke-dasharray:none;stroke-dashoffset:0;stroke-opacity:.46732028;visibility:visible;display:inline;overflow:visible;enable-background:accumulate" transform="translate(-12.152 -789.198)"/><path d="M95.63 864.924c.706.583 1.08 1.258 1.695 1.483.605.22.787-.35.545-.878-.248-.54-1.25-.794-2.24-.605z" style="opacity:1;fill:#000;fill-opacity:1;fill-rule:evenodd;stroke:none;stroke-width:1px;stroke-linecap:butt;stroke-linejoin:miter;marker:none;marker-start:none;marker-mid:none;marker-end:none;stroke-miterlimit:4;stroke-dasharray:none;stroke-dashoffset:0;stroke-opacity:.46732028;visibility:visible;display:inline;overflow:visible;enable-background:accumulate" transform="translate(-12.152 -789.198)"/><path d="M176.231 854.455c0 1.535-2.456 1.692-3.99 1.692-1.536 0-3.992-.822-3.992-2.357 0-2.08 2.41-2.209 3.93-1.994 1.717.242 4.052 1.124 4.052 2.66z" style="opacity:1;fill:#ff0;fill-opacity:1;fill-rule:evenodd;stroke:#000;stroke-width:1px;stroke-linecap:butt;stroke-linejoin:round;marker:none;marker-start:none;marker-mid:none;marker-end:none;stroke-miterlimit:4;stroke-dasharray:none;stroke-dashoffset:0;stroke-opacity:1;visibility:visible;display:inline;overflow:visible;enable-background:accumulate" transform="translate(-12.152 -789.198)"/><path d="M157.601 898.902c-11.605 5.279-24.039 12.754-31.503 28.862" style="opacity:1;fill:none;fill-opacity:1;fill-rule:evenodd;stroke:#fff;stroke-width:1px;stroke-linecap:butt;stroke-linejoin:miter;marker:none;marker-start:none;marker-mid:none;marker-end:none;stroke-miterlimit:4;stroke-dasharray:none;stroke-dashoffset:0;stroke-opacity:1;visibility:visible;display:inline;overflow:visible;enable-background:accumulate" transform="translate(-12.152 -789.198)"/><path d="M111.212 927.401c5.665-14.468 16.226-26.199 29.567-36.002" style="opacity:1;fill:none;fill-opacity:1;fill-rule:evenodd;stroke:#fff;stroke-width:1px;stroke-linecap:butt;stroke-linejoin:miter;marker:none;marker-start:none;marker-mid:none;marker-end:none;stroke-miterlimit:4;stroke-dasharray:none;stroke-dashoffset:0;stroke-opacity:1;visibility:visible;display:inline;overflow:visible;enable-background:accumulate" transform="translate(-12.152 -789.198)"/><path d="m110.766 882.97.46 11.294.264 5.133c.053 1.21-1.902 4.392-3.552 4.499" style="opacity:1;fill:none;fill-opacity:1;fill-rule:evenodd;stroke:#000;stroke-width:1px;stroke-linecap:round;stroke-linejoin:round;marker:none;marker-start:none;marker-mid:none;marker-end:none;stroke-miterlimit:4;stroke-dasharray:none;stroke-dashoffset:0;stroke-opacity:1;visibility:visible;display:inline;overflow:visible;enable-background:accumulate" transform="translate(-12.152 -789.198)"/><path d="M85.919 927.159c.565-8.004 1.987-17.48 4.165-26.128" style="opacity:1;fill:none;fill-opacity:1;fill-rule:evenodd;stroke:#fff;stroke-width:1px;stroke-linecap:butt;stroke-linejoin:miter;marker:none;marker-start:none;marker-mid:none;marker-end:none;stroke-miterlimit:4;stroke-dasharray:none;stroke-dashoffset:0;stroke-opacity:1;visibility:visible;display:inline;overflow:visible;enable-background:accumulate" transform="translate(-12.152 -789.198)"/></svg>
